X:1
T:Title
%%score { ( 1 4 ) | ( 2 3 ) }
L:1/8
Q:1/4=100
M:4/4
K:A
V:1 treble nm="Grand Piano"
V:4 treble 
V:2 bass 
V:3 bass 
V:1
 [CE]2 [CA]>[DB] [Ec]3 [Ec] | dBBG [CEA]3 E | F2 E2 E2 ^D2 | E4 EDCD | %4
w: J.~E.~Gould * * * *||||
 [A,CE]2 [A,EA]>[EB] [Ec]3 [Ec] | dBBG [CEA]3 [A,E] | [A,DF] [Fd]2 [EAc]/[DFB]/ E2- [B,EG]2 | %7
w: |||
 [A,CA]6 z2 |] %8
w: |
V:2
 [A,,A,]2 [A,,A,]>[A,,A,] [A,,A,]3 [A,,A,] | .B,2 [E,E]2 z4 | %2
 [D,A,D]2 [C,A,]2 [B,,G,]2 [B,,F,B,]2 | [E,G,B,]4 B,B,A,B, | A,,2 C,>[B,,G,] [A,,A,]3 [A,,A,] | %5
 .B,2 .D2 z4 | D, [B,,B,]2 C,/D,/ D,2 z D | A,,6 z2 |] %8
V:3
 x8 | [E,E]-[E,G,E]G,D A,,3 [C,A,] | x8 | x8 | x8 | [E,E]-[E,A,E][E,E]-[E,B,E] A,,3 C, | %6
 z4 z2 E,2 | x8 |] %8
V:4
 x8 | x8 | x8 | x8 | x8 | x8 | z4 [CA]2 z2 | x8 |] %8

